X:160
T: ICH HABE DEN FRUEHLING GESEHEN
N: E0739D
O: Europa, Mitteleuropa, Deutschland, Pommern, Alt - Storken
R: Liebes - Lied, Leid, Klage, Tod
M: 4/4
L: 1/8
K: F
FG | A2FFF2BA | A3GF2
EF | G2ccd2cB | A4z2
FA | c2ccd2de | f3ed2
c2 | d2BGc2BG | F4z2

@@@ Tune index: 4473
